X:7235
T:Horse and Away to Newmarket. JB.08
T:Fenwick O'Bywell,aka. JB.08
T:Newmarket Races,aka. JB.08
M:6/8
L:1/8
Q:80
S:James Biggins MS, Leeds, 1779.
R:Jig
O:England
A:Yorkshire
N:Bar 5,etc -d>ede/ in ms..Peacock's Tunes 1800"Newmarket
N:Races"..Northumbrian Minstrelsy"Fenwick O'Bywell's Off to Newmarket"
Z:vmp.Nick Barber & Chris Partington
K:F
f/e/|f2F AGF|GAG B2d|c2F AGF|FfF ABc|!
"NB"d>ed/e/ fcA|GAG B2d|c2B AGF|FfFA2:|!
|:B/-A/|FBF A/B/cA|FfFA2G|GgG A/-B/cA|GgG|!
ABc|"NB"d>ed/e/ fcA|GAG A2f|dcB AGF|FfFA2:|!
|:B/A/|FA/B/c cA/B/c|FA/B/c cA/B/c|GB/c/d dB/c/d|
GB/c/d dB/c/d|!
FA/B/c cA/B/c|FA/B/c cA/B/c|edc cBA|GAGA2f|dcB AGF|FfFA2:|!
|:B/A/|ffF AAF|ffFB2d|ffF AAF|ffF ABc|!
"NB"d>ed/e/ fcA|GAGA2f|dcB AGF|FfFA2:|]
